packages/icons/svg/User_Card_IDCard_32px.svg

<svg xmlns="http://www.w3.org/2000/svg" viewBox="0 0 32 32"><path d="M27 7H5a2 2 0 00-2 2v14a2 2 0 002 2h22a2 2 0 002-2V9a2 2 0 00-2-2zM5 23V9h22v14z"/><path d="M13.3 16.38A3 3 0 0014.5 14a3 3 0 00-6 0 3 3 0 001.2 2.38A4.5 4.5 0 007 20.5h1a3.5 3.5 0 017 0h1a4.5 4.5 0 00-2.7-4.12zM11.5 16a2 2 0 112-2 2 2 0 01-2 2zM18 12.5h7v1h-7zM18 15.5h7v1h-7z"/></svg>

<svg xmlns="http://www.w3.org/2000/svg" viewBox="0 0 32 32"><defs></defs><g id="Icon"><path  d="M27,7H5A2,2,0,0,0,3,9V23a2,2,0,0,0,2,2H27a2,2,0,0,0,2-2V9A2,2,0,0,0,27,7ZM5,23V9H27V23Z"/><path  d="M13.3,16.38A3,3,0,0,0,14.5,14a3,3,0,0,0-6,0,3,3,0,0,0,1.2,2.38A4.5,4.5,0,0,0,7,20.5H8a3.5,3.5,0,0,1,7,0h1A4.5,4.5,0,0,0,13.3,16.38ZM11.5,16a2,2,0,1,1,2-2A2,2,0,0,1,11.5,16Z"/><rect  x="18" y="12.5" width="7" height="1"/><rect  x="18" y="15.5" width="7" height="1"/></g></svg>
